X: 21812
T: Kings Of Kerry
R: slide
M: 12/8
K: Gmajor
|:A|BdB B2 G EFG D2 G|E2 G DGB A3 ABc|
B3 BAG E2 G D2 c|dBG A>BA G2 F G2:|
|:f|gba ged e2 g d2 g|BdB BAG AcB A2 d|
g3 g2 d efg d2 c|B2 G A>BA G3 G2:|

